X: 13
T: Marsch från Bjuråker efter Jakob Adolf Hägg
B: Norrländische Tänze
R: Marsch
O: Bjuråker, Hälsingland
S:Efter Jakob Adolf Hägg
Z: LP
M: 4/4
L: 1/16
K: Bb
({/E}DCDF|[D4B4]) ({/E}DCDF [D4B4]) e2>d2|c4 [A,2F2]>[A,2F2] [A,4F4] ({/G}F=EFA|[F4c4]) ({/G}F=EFA [F4c4]) [A2f2]>_e2|d4 [D2B2]>[D2B2] [D4B4]:|
|:d2f2|b4 d2f2 b4 d2f2|[E4B4g4] [B2g2]>[B2g2] [B4g4] ({/B}AGAc)|[A4f4] [A2f2]>[A2f2] ([A2f2]e2d2[F2c2])|[D4d4] [D2B2]>[D2B2] [D4B4]:|

